X:1
T:O Guds Lam
T:Aug. Söderman (1832-1876)
T:O Guds Lam
T:©PA Aglert Edition may be freely distributed, duplicated, performed and recorded
T:©PA Aglert Edition may be freely distributed, duplicated, performed and recorded
C:Aug. Söderman (1832-1876)
Z:©PA Aglert
Z:Edition may be freely distributed, duplicated, performed and recorded
%%score [ 1 2 3 4 ]
L:1/8
Q:1/4=80
M:4/4
K:F
V:1 treble nm="S"
V:2 treble nm="A"
V:3 treble-8 nm="T"
V:4 bass nm="B"
V:1
"^Andante"!p! ([Ac]4 [FA]2) [F-B][FA] | (A4 F2) z2 |!mf! d3 c dcdc | d4 c2 z2 | z8 | %5
w: O * Guds *|lam, *|som bort- ta- ger värl- dens|syn- der!||
!p!!<(! F3!<)! f e2 d2 |!mf! (c3 A) GAGA |!>(! G4 F2!>)! z2 | z8 | z8 | (c4 G2) A2 | %11
w: O Guds lam, som|bort- * ta- ger värl- dens|syn- der!|||Fräls * oss|
 B4 (A2!<(! G2)!<)! | A2 A2 A4 |!f! d3 d G2 G2 | c4 F4 | B3 B!>(! E2 E2!>)! | A6 z2 |!ppp! G6 G2 | %18
w: mil- de *|Her- re Gud!|Hör oss mil- de|Her- re|Gud! Giv oss din|frid!|Fräls oss|
 G2 G2 z4 |!p! ([Ac]4 [FA]2) [F-B][FA] |!<(! [F^G]4!<)! [FG]4 | ([EA]3 F) GFGF |!>(! G8!>)! | %23
w: Her- re!|O * Guds *|lam som|bort- * ta- ger värl- dens|syn-|
 F6 z2 |] %24
w: der!|
V:2
!p! (F4 C2) (DC) | (E4 C2) z2 |!mf! F3 E FEFE | F4 E2 z2 | z8 |!p! FF F4 F2 |!mf! (E3 F) DFDF | %7
w: O * Guds *|lam, *|som bort- ta- ger värl- dens|syn- der!||O Guds lam, som|bort- * ta- ger värl- dens|
!>(! (D2 E2) F2!>)! z2 | z8 | (G4 D2) E2 | F4 F4 | D2 _D2 C2-!<(! C2!<)! | C2 ^C2 D2 D2 | %13
w: syn- * der!||Fräls * oss|mil- de|Her- re Gud! *|Hör oss mil- de|
!f! D4 C4 | C3 C B,2 B,2 | B,4!>(! A,4!>)! | A,6 z2 |!ppp! D6 D2 | D2 D2 z4 |!p! (F4 C2) (DC) | %20
w: Her- re|Gud! Giv oss din|frid, din|frid!|Fräls oss|Her- re!|O * Guds *|
!<(! =B,4!<)! B,4 | (!courtesy!_B,3 A,) DDDD |!>(! (D4 E4)!>)! | F6 z2 |] %24
w: lam som|bort- * ta- ger värl- dens|syn- *|der!|
V:3
 z8 |!p! B3 B A2 z2 |!mf! A3 c AcAc | A4 c2 z2 |!p! ([Ac]4 [FA]2) [F-B][FA] | _A4 G4 | %6
w: |O Guds lam,|som bort- ta- ger värl- dens|syn- der!|O * Guds *|lam, som|
!mf! (B3 A) BABA |!>(! B4!>)! A2 z2 | (c4 G2) A2 | B4 B4 | (A4 B2) A2 | G4 (c2!<(! B2)!<)! | %12
w: bort- * ta- ger värl- dens|syn- der!|Fräls * oss|mil- de,|fräls * oss|Gud. o *|
 A2 G2 ^F2 F2 |!f! (G2 !courtesy!=F2) E4 | F2 E2 D2 D2 | (E2 D2)!>(! ^C4!>)! | D6 z2 |!ppp! F6 F2 | %18
w: Hör oss mil- de|Her- * re|Gud! Giv oss din|frid, * din|frid!|Fräls oss|
 F2 F2 z4 | z8 |!<(! F3 f!<)! e2 d2 | (c3 A) BABA |!>(! B8!>)! | A6 z2 |] %24
w: Her- re!||O Guds lam som|bort- * ta- ger värl- dens|syn-|der!|
V:4
 z8 |!p! C,3 C, F,2 z2 |!mf! D,3 A, D,A,D,A, | D,4 A,2 z2 |!p! (F,4 C,2) (D,C,) | %5
w: |O Guds lam,|som bort- ta- ger värl- dens|syn- der!|O * Guds *|
 [=B,,F,]4 [B,,F,]4 |!mf! (C,3 D,) G,D,G,D, |!>(! (G,2 C,2) F,2!>)! z2 | z8 | z8 | z8 | %11
w: lam, som|bort- * ta- ger värl- dens|syn- * der!||||
 G,4 (!courtesy!=D,2!<(! E,2)!<)! | F,2 E,2 D,2 C,2 |!f! B,,3 B,, B,,2 B,,2 | A,,4 A,,4 | %15
w: Fräls oss *|Her- re Gud. *|Hör oss mil- de|Her- re|
 G,,3 G,,!>(! G,,2 G,,2!>)! | F,,6 z2 |!ppp! B,,6 B,,2 | B,,2 B,,2 z4 | C,6!p! C,2 | %20
w: Gud! Giv oss din|frid!|Fräls oss|Her- re!|O Guds|
!<(! C,4!<)! C,4 | (C,3 D,) G,,D,G,,D, |!>(! (G,,4 C,4)!>)! | [F,,C,]6 z2 |] %24
w: lam som|bort- * ta- ger värl- dens|syn- *|der!|

